X:7921
T:The gentle maiden
C:anon.
O:Ireland
Z:Transcribed by Frank Nordberg - http://www.musicaviva.com
F:http://abc.musicaviva.com/tunes/ireland/gentle-maiden.abc
M:6/8
L:1/8
K:G
"^Moderato"D|(G>AG) (FE)D|d3 (ef)g|(d>c)B (A2G)|E3- E2D|(G>AG) (FE)D|d3 (efg)|(dcB) (A2G)|G3- G2d|
(de)f g2g|g3 (gf)e|(d>c)B (A2G)|E3- E2F|(G>AG) (FE)D|d3 efg|(d>cB) A2G|G3-G2|]
W:
W:
W:  From Musica Viva - http://www.musicaviva.com
W:  the Internet center for free sheet music downloads.
